images/elca.svg

<svg fill="none" height="22" viewBox="0 0 21 22" width="21" xmlns="http://www.w3.org/2000/svg"><path d="m12.2375 20.2627v.0886c0 .4373-.1903.8566-.529 1.1658s-.7981.4829-1.2771.4829c-.47897 0-.93832-.1737-1.27702-.4829-.33871-.3092-.52901-.7285-.52901-1.1658l-8.156465-8.8638c-.34251-.3738-.5083125-.8564-.46096681-1.3418.04734571-.48542.30397081-.93376.71343781-1.24642.409464-.31266.938234-.46404 1.469964-.42082s1.02284.27751 1.36536.65129l5.12693 5.54875v-3.7583l-5.49592-5.99192c-.34251-.37143-.50934-.85185-.46381-1.33558.04552-.48372.29967-.93111.70656-1.24377s.93324-.46497 1.46315-.42341c.5299.04155 1.02.27358 1.36251.64501l2.42751 2.62368v-3.54553c0-.43725.1903-.856594.52901-1.165779.3387-.309186.79806-.482901 1.27706-.482901s.9384.173715 1.2771.482901c.3387.309185.5289.728529.5289 1.165779v3.54553l2.5053-2.71233c.3425-.37143.8326-.60345 1.3625-.64501.5299-.04155 1.0562.11076 1.4631.42342s.6611.76007.7066 1.2438c.0455.48372-.1213.96414-.4638 1.33557l-5.5737 6.02734v3.7051l5.127-5.58418c.1637-.19276.3692-.35261.6037-.46956.2344-.11695.4928-.18847.7589-.2101s.5342.0071.7877.0844c.2534.07729.4866.20147.685.3648.2082.14936.3808.33603.507.54849.1263.21247.2036.44625.2272.687.0237.24075-.0068.48335-.0897.71295-.0828.2296-.2163.4413-.392.6221z" fill="#f1b263"/></svg>

<svg width="21" height="22" viewBox="0 0 21 22" fill="none" xmlns="http://www.w3.org/2000/svg">
<path d="M12.2375 20.2627V20.3513C12.2375 20.7886 12.0472 21.2079 11.7085 21.5171C11.3698 21.8263 10.9104 22 10.4314 22C9.95243 22 9.49308 21.8263 9.15438 21.5171C8.81567 21.2079 8.62537 20.7886 8.62537 20.3513V20.3513L0.468905 11.4875C0.126395 11.1137 -0.0394075 10.6311 0.00793819 10.1457C0.0552839 9.66028 0.311909 9.21194 0.721376 8.89928C1.13084 8.58662 1.65961 8.43524 2.19134 8.47846C2.72307 8.52168 3.21418 8.75597 3.5567 9.12975L8.68363 14.6785V10.9202L3.18771 4.92828C2.8452 4.55685 2.67837 4.07643 2.7239 3.5927C2.76942 3.10898 3.02357 2.66159 3.43046 2.34893C3.83735 2.03627 4.3637 1.88396 4.89361 1.92552C5.42351 1.96707 5.91361 2.1991 6.25612 2.57053L8.68363 5.19421V1.64868C8.68363 1.21143 8.87393 0.792086 9.21264 0.482901C9.55134 0.173715 10.0107 0 10.4897 0C10.9687 0 11.4281 0.173715 11.7668 0.482901C12.1055 0.792086 12.2957 1.21143 12.2957 1.64868V5.19421L14.801 2.48188C15.1435 2.11045 15.6336 1.87843 16.1635 1.83687C16.6934 1.79532 17.2197 1.94763 17.6266 2.26029C18.0335 2.57295 18.2877 3.02036 18.3332 3.50409C18.3787 3.98781 18.2119 4.46823 17.8694 4.83966L12.2957 10.867V14.5721L17.4227 8.98792C17.5864 8.79516 17.7919 8.63531 18.0264 8.51836C18.2608 8.40141 18.5192 8.32989 18.7853 8.30826C19.0514 8.28663 19.3195 8.31536 19.573 8.39266C19.8264 8.46995 20.0596 8.59413 20.258 8.75746C20.4662 8.90682 20.6388 9.09349 20.765 9.30595C20.8913 9.51842 20.9686 9.7522 20.9922 9.99295C21.0159 10.2337 20.9854 10.4763 20.9025 10.7059C20.8197 10.9355 20.6862 11.1472 20.5105 11.328L12.2375 20.2627Z" fill="#F1B263"/>
</svg>
